X:33
T:Old Tipperary/ Strop the Razor
T:Old Tipparary, The
M:6/8
L:1/8
K:G
||:dcA G3|AGF G3|dcA G3|AGE F2A|dcA G3|AGF G2d|fdd edd|fdd cAF:||:
GBd g3|gaf g3|d2g gfg|a2g fga|bc'b agf|gfe f2e|dcA cde|fed cAF:||
T:Strop the Razor
M:6/8
L:1/8
K:G
||:BGG AGG|BGG AGF|DGG GFG|DGG G2A|BGG AGG|BGG AGF|D2E F2G|ADE FGA:||:
dBB cAA|dBB cAF|DGG GFG|DGG G2A|dBB cAA|dBB cAF|D2E F2G|ADE FGA:||:
BAB cBc|dcd dBd|g3 gfd|gag gdc|BAB cBc|dcd d2e|=f3 fde|=fag ^fdc:||

